web/ui/src/components/workflow/workflow-editor/svgs/edge-remove.svg

<svg height="24" viewBox="0 0 24 24" width="24" xmlns="http://www.w3.org/2000/svg"><g fill="none" fill-rule="evenodd"><circle cx="12" cy="12" fill="#fff" r="11.75" stroke="#8e9eb3" stroke-width=".5"/><g transform="translate(5 5)"><path d="m0 0h14v14h-14z" fill="#000" fill-rule="nonzero" opacity="0"/><path d="m10.6815625 11.6396875c0 .442173-.358452.800625-.800625.800625h-5.761875c-.4416742-.0012018-.79942316-.3589508-.800625-.800625v-8.4896875h7.363125zm-5.76407751-9.9246875c-.00057952-.04369163.01651461-.08576789.04741212-.11666539.0308975-.03089751.07297376-.04799164.11666539-.04739711h3.845625c.04369163-.00059453.08576789.0164996.11666539.04739711.03089751.0308975.04799164.07297376.04741212.11666539v.4725h-4.17378002zm8.16376501.4725h-3.03625v-.4725c0-.6173508-.5004617-1.1178125-1.1178125-1.1178125h-3.845625c-.61635466.00239829-1.11541421.50145784-1.1178125 1.1178125v.4725h-3.045c-.25380428.01710176-.45093637.22796395-.45093637.48234375s.19713209.46524199.45093637.48234375h1.4371875v8.4875c0 .4676098.18575728.9160676.51640736 1.2467176.33065007.3306501.77910782.5164074 1.24671764.5164074h5.761875c.4676098 0 .9160676-.1857573 1.2467176-.5164074.3306501-.33065.5164074-.7791078.5164074-1.2467176v-8.4896875h1.4371875c.265787 0 .4813327-.21546296.4813327-.48125.0023171-.12835609-.0476149-.2521632-.1383922-.34294052s-.2145844-.14070929-.3429405-.13830948zm-6.08125 8.806875c.12801535 0 .25075585-.0510018.34107088-.1417274.09031503-.0907255.14076101-.2136961.1401841-.3417101v-5.1253125c0-.26578704-.21546794-.48125-.48125498-.48125s-.48125498.21546296-.48125498.48125v5.1253125c-.00057691.128014.04986907.2509846.1401841.3417101.09031503.0907256.21305553.1417274.34107088.1417274m-2.2465625 0c.26699516 0 .4834375-.2164423.4834375-.4834375v-5.1253125c.01213394-.18007778-.07705464-.35191903-.23129722-.44564451-.15424258-.09372549-.34785048-.09372549-.50209306 0-.15424258.09372548-.24343116.26556673-.23129722.44564451v5.1253125c.00683842.2632666.21801709.4754052.48125.4834375m4.493125 0c.26614049-.0012043.48125272-.2172943.48125-.4834375v-5.1253125c.01213394-.18007778-.07705464-.35191903-.23129722-.44564451-.15424258-.09372549-.34785048-.09372549-.50209306 0-.15424258.09372548-.24343116.26556673-.23129722.44564451v5.1253125c0 .2669952.21644234.4834375.4834375.4834375" fill="#667085"/></g></g></svg>

<?xml version="1.0" encoding="UTF-8"?>
<svg width="24px" height="24px" viewBox="0 0 24 24" version="1.1" xmlns="http://www.w3.org/2000/svg" xmlns:xlink="http://www.w3.org/1999/xlink">
    <title>delete_icon_normals</title>
    <g id="页面-1" stroke="none" stroke-width="1" fill="none" fill-rule="evenodd">
        <g id="建木CI-图形编辑器-左侧面板收起" transform="translate(-1451.000000, -686.000000)">
            <g id="delete_icon_normals备份-6" transform="translate(1451.000000, 686.000000)">
                <circle id="椭圆形" stroke="#8E9EB3" stroke-width="0.5" fill="#FFFFFF" cx="12" cy="12" r="11.75"></circle>
                <g id="删-除-备份-2" transform="translate(5.000000, 5.000000)">
                    <rect id="矩形" fill="#000000" fill-rule="nonzero" opacity="0" x="0" y="0" width="14" height="14"></rect>
                    <path d="M10.6815625,11.6396875 C10.6815625,12.0818605 10.3231105,12.4403125 9.8809375,12.4403125 L4.1190625,12.4403125 C3.6773883,12.4391107 3.31963934,12.0813617 3.3184375,11.6396875 L3.3184375,3.15 L10.6815625,3.15 L10.6815625,11.6396875 Z M4.91748499,1.715 C4.91690547,1.67130837 4.9339996,1.62923211 4.96489711,1.59833461 C4.99579461,1.5674371 5.03787087,1.55034297 5.0815625,1.5509375 L8.9271875,1.5509375 C8.97087913,1.55034297 9.01295539,1.5674371 9.04385289,1.59833461 C9.0747504,1.62923211 9.09184453,1.67130837 9.09126501,1.715 L9.09126501,2.1875 L4.91748499,2.1875 L4.91748499,1.715 Z M13.08125,2.1875 L10.045,2.1875 L10.045,1.715 C10.045,1.0976492 9.5445383,0.5971875 8.9271875,0.5971875 L5.0815625,0.5971875 C4.46520784,0.599585794 3.96614829,1.09864534 3.96375,1.715 L3.96375,2.1875 L0.91875,2.1875 C0.664945719,2.20460176 0.467813627,2.41546395 0.467813627,2.66984375 C0.467813627,2.92422355 0.664945719,3.13508574 0.91875,3.1521875 L2.3559375,3.1521875 L2.3559375,11.6396875 C2.3559375,12.1072973 2.54169478,12.5557551 2.87234486,12.8864051 C3.20299493,13.2170552 3.65145268,13.4028125 4.1190625,13.4028125 L9.8809375,13.4028125 C10.3485473,13.4028125 10.7970051,13.2170552 11.1276551,12.8864051 C11.4583052,12.5557551 11.6440625,12.1072973 11.6440625,11.6396875 L11.6440625,3.15 L13.08125,3.15 C13.347037,3.15 13.5625827,2.93453704 13.5625827,2.66875 C13.5648998,2.54039391 13.5149678,2.4165868 13.4241905,2.32580948 C13.3334132,2.23503216 13.2096061,2.18510019 13.08125,2.1875 Z M7,10.994375 C7.12801535,10.994375 7.25075585,10.9433732 7.34107088,10.8526476 C7.43138591,10.7619221 7.48183189,10.6389515 7.48125498,10.5109375 L7.48125498,5.385625 C7.48125498,5.11983796 7.26578704,4.904375 7,4.904375 C6.73421296,4.904375 6.51874502,5.11983796 6.51874502,5.385625 L6.51874502,10.5109375 C6.51816811,10.6389515 6.56861409,10.7619221 6.65892912,10.8526476 C6.74924415,10.9433732 6.87198465,10.994375 7,10.994375 M4.7534375,10.994375 C5.02043266,10.994375 5.236875,10.7779327 5.236875,10.5109375 L5.236875,5.385625 C5.24900894,5.20554722 5.15982036,5.03370597 5.00557778,4.93998049 C4.8513352,4.846255 4.6577273,4.846255 4.50348472,4.93998049 C4.34924214,5.03370597 4.26005356,5.20554722 4.2721875,5.385625 L4.2721875,10.5109375 C4.27902592,10.7742041 4.49020459,10.9863427 4.7534375,10.994375 M9.2465625,10.994375 C9.51270299,10.9931707 9.72781522,10.7770807 9.7278125,10.5109375 L9.7278125,5.385625 C9.73994644,5.20554722 9.65075786,5.03370597 9.49651528,4.93998049 C9.3422727,4.846255 9.1486648,4.846255 8.99442222,4.93998049 C8.84017964,5.03370597 8.75099106,5.20554722 8.763125,5.385625 L8.763125,10.5109375 C8.763125,10.7779327 8.97956734,10.994375 9.2465625,10.994375" id="形状" fill="#667085"></path>
                </g>
            </g>
        </g>
    </g>
</svg>
